symbolic/24x24/actions/labplot-axis-vertical.svg

<svg xmlns="http://www.w3.org/2000/svg" width="24" height="24" viewBox="0 0 24 24">
 <defs>
  <style id="current-color-scheme" type="text/css">
   .ColorScheme-Text { color:#323a41; } .ColorScheme-Highlight { color:#4285f4; } .ColorScheme-NeutralText { color:#ff9800; } .ColorScheme-PositiveText { color:#4caf50; } .ColorScheme-NegativeText { color:#f44336; }
  </style>
 </defs>
 <path style="fill:currentColor" class="ColorScheme-Text" d="M 1 0 L 1 14 L 0 14 L 0 15 L 1 15 L 1 16 L 2 16 L 2 15 L 16 15 L 16 14 L 2 14 L 2 10.333984 L 4 10.333984 L 4 9.3339844 L 2 9.3339844 L 2 1 L 4 1 L 4 0 L 2 0 L 1 0 z M 2.0078125 4.6660156 L 2.0078125 5.6660156 L 4.0078125 5.6660156 L 4.0078125 4.6660156 L 2.0078125 4.6660156 z" transform="translate(4 4)"/>
</svg>

<svg xmlns="http://www.w3.org/2000/svg" width="24" height="24"><defs><style id="current-color-scheme" type="text/css"></style></defs><path style="fill:currentColor;color:#323a41" d="M1 0v14H0v1h1v1h1v-1h14v-1H2v-3.666h2v-1H2V1h2V0H1zm1.008 4.666v1h2v-1h-2z" transform="translate(4 4)"/></svg>
